pix_core/e/manage_files.svg

<!DOCTYPE svg PUBLIC "-//W3C//DTD SVG 1.1//EN" "http://www.w3.org/Graphics/SVG/1.1/DTD/svg11.dtd" [
	<!ENTITY ns_flows "http://ns.adobe.com/Flows/1.0/">
]><svg xmlns="http://www.w3.org/2000/svg" width="16" height="16" viewBox="-1 0 16 16" preserveAspectRatio="xMinYMid meet" overflow="visible" enable-background="new -1 0 16 16"><path d="M13.7 6.1c-.2-.4-.4-.7-.6-1l-2.2-2.2c-.2-.2-.6-.4-1-.6-.4-.2-.8-.3-1.1-.3h-1.8c0-1.1-.9-2-2-2s-2 .9-2 2h-1.8c-.3 0-.6.1-.8.4s-.4.5-.4.8v11.5c0 .3.1.6.4.9.2.3.5.4.8.4h11.5c.3 0 .6-.1.9-.4.2-.2.4-.5.4-.9v-7.5c0-.3-.1-.7-.3-1.1zm-3.7-2.7c.1.1.1.1.2.2l2.2 2.2c0 .1.1.1.2.2h-2.6v-2.6zm-5-2.4c.5 0 1 .4 1 1h-2c0-.6.5-1 1-1zm8 13.7c0 .2-.1.3-.2.3h-11.6c-.1 0-.2-.1-.2-.3v-11.5c0-.1.1-.2.2-.2h1.8v4c0 1.1.9 2 2 2s2-.9 2-2v-2.2h-1v2.2c0 .6-.4 1-1 1s-1-.5-1-1v-4h4.8s.1 0 .2 0v4h4c0 .1 0 .2 0 .2v7.5z" fill="#999"/></svg>

<!DOCTYPE svg PUBLIC "-//W3C//DTD SVG 1.1//EN" "http://www.w3.org/Graphics/SVG/1.1/DTD/svg11.dtd" [
	<!ENTITY ns_flows "http://ns.adobe.com/Flows/1.0/">
]><svg xmlns="http://www.w3.org/2000/svg" width="16" height="16" viewBox="-1 0 16 16" preserveAspectRatio="xMinYMid meet" overflow="visible"><path d="M13.7 6.1c-.2-.4-.4-.7-.6-1l-2.2-2.2c-.2-.2-.6-.4-1-.6-.4-.2-.8-.3-1.1-.3H7c0-1.1-.9-2-2-2S3 .9 3 2H1.2c-.3 0-.6.1-.8.4s-.4.5-.4.8v11.5c0 .3.1.6.4.9.2.3.5.4.8.4h11.5c.3 0 .6-.1.9-.4.2-.2.4-.5.4-.9V7.2c0-.3-.1-.7-.3-1.1zM10 3.4l.2.2 2.2 2.2c0 .1.1.1.2.2H10V3.4zM5 1c.5 0 1 .4 1 1H4c0-.6.5-1 1-1zm8 13.7c0 .2-.1.3-.2.3H1.2c-.1 0-.2-.1-.2-.3V3.2c0-.1.1-.2.2-.2H3v4c0 1.1.9 2 2 2s2-.9 2-2V4.8H6V7c0 .6-.4 1-1 1s-1-.5-1-1V3h5v4h4v7.7z" fill="#999"/></svg>
